X:116
T:A Basilisa (Arrg.)
R:Mueira
C:Tradicional
S:Msica Tradicional Asturiana, (C) Tello & Tito. Asturies, 2001.
S:http://pagina.de/MusTradAst <telloytito@asturies.org>
O:Bual
A:Asturies
D:Muyeres
G:Arrg.
Z:Curdin
M:6/8
L:1/8
Q:3/8=88
K:Dm
|:"Dm"AAA AAB|"A7"AG/F/G/A/ G3|EFG AGF|"Dm"E D5 :|
|"Dm"AFD AAB|"A7"A G5|EEF GFG|"Dm"A3-ABA|
|:"Gm"G2B- "A7"BAG|"Dm"F2 A-AGF|"A7"E2G- "Bb"GFG|"Dm"A3- ABA :| 
|"Gm"G2B- "A7"BAG|"Dm"F2 A-AGF|"A7"E2G- "Gm"GFE|"Dm"D4 z2|
